X: 30041
M: 2/4
L: 1/8
K: F
V: 1 staves=3
c |\
ffff | ff zc | ffaf | d2 zd |\
dddd | ggbg | ffee | f2 zc |
fcfg | a2 za | bagf | d2 zd |\
gdga | bbgf | ffeg | f2 z :|
V: 2
z |\
[AC][AC][AC][AC] | [AC][AC][AC]z |\
[AC][AC][AC][AC] | [BD][BD][BD]z |\
[BD][BD][BD][BD] | [BD][BD][BD][BD] |\
[AF][AF] [BG][BG] | [A2F2] z2 |
[FA,][FA,][FC][EC] | [FA,][FA,][FA,] F |\
[GB,][GB,][GB,][GB,] | [GB,][GB,][GB,][GB,] |\
[AA,][FA,][GB,][EB,] | [F2A,2] z :|
V: 3 clef=bass middle=d
z |\
ffff | fffz | ffff | BBBz |\
ffac' | fffc' | d'c'ba | bBBz |\


